static/icons/pen.svg

<svg xmlns="http://www.w3.org/2000/svg" width="24" height="24" viewBox="0 0 24 24">
  <path fill-rule="evenodd" d="M19.744,7.584 L18.1226667,9.20533333 L14.7946667,5.87733333 L16.416,4.256 C16.5866675,4.08533248 16.7964432,4 17.0453333,4 C17.2942235,4 17.5039991,4.08533248 17.6746667,4.256 L19.744,6.32533333 C19.9146675,6.49600085 20,6.70577653 20,6.95466667 C20,7.2035568 19.9146675,7.41333248 19.744,7.584 Z M4,16.672 L13.8346667,6.83733333 L17.1626667,10.1653333 L7.328,20 L4,20 L4,16.672 Z"/>
</svg>

<svg xmlns="http://www.w3.org/2000/svg" width="24" height="24">
    <path fill-rule="evenodd" d="M19.744 7.584l-1.621 1.621-3.328-3.328 1.621-1.621c.17-.17.38-.256.63-.256.248 0 .458.085.629.256l2.069 2.07c.17.17.256.38.256.629a.855.855 0 0 1-.256.629zM4 16.672l9.835-9.835 3.328 3.328L7.328 20H4v-3.328z"/>
</svg>
